!!!!SEGMENT: pl-kk--kk-i-84--004_bellinzani-paolo-benedetto--missa-in-dmol-agnus-dei.krn
!!!cenid: 17xx:2311
!!!COM: Bellinzani, Paolo Benedetto
!!!COM-rismid: pe30000281
!!!CDT: 1682-1757/02/26
!!!CNT: Italian
!!!OTL: Missa in Dmol – Agnus Dei
!!!PDT:
!!!AGN: Sacred; Mass
!!!SMS-siglum: PL-Kk
!!!SMS-shelfmark: Kk.I.84
!!!SMS-shelfwork: 001-004 M
!!!SMS-variant:
!!!SMS-altvar:
!!!NIFC-rismid: 1001154030
!!!URL-scan: http://repozytorium.nifc.pl/skany/pl-kk-nut--i-84
!!!ONB-nifc: UWAGA: części Mszy: 1. Kyrie, 2. Et in terra, 3. Sanctus, 4. Agnus Dei.
**kern	**text	**kern	**text	**kern	**text	**kern	**text	**kern	**text
*part5	*part5	*part4	*part4	*part3	*part3	*part2	*part2	*part1	*part1
*staff5	*staff5	*staff4	*staff4	*staff3	*staff3	*staff2	*staff2	*staff1	*staff1
*I"Baſso Ripieno.	*	*I"Baſso.	*	*I"Tenore	*	*I"Alto.	*	*I"Canto.	*
*I'B rip	*	*I'B	*	*I'T	*	*I'A	*	*I'C	*
*clefC3	*	*clefF4	*	*clefC4	*	*clefC3	*	*clefC1	*
*k[]	*	*k[]	*	*k[]	*	*k[]	*	*k[]	*
*M2/1	*	*M2/1	*	*M2/1	*	*M2/1	*	*M2/1	*
*met(C|)	*	*met(C|)	*	*met(C|)	*	*met(C|)	*	*met(C|)	*
=1-	=1-	=1-	=1-	=1-	=1-	=1-	=1-	=1-	=1-
!	!	!	!	!	!	!	!	!LO:TX:a:t=1mum	!
!	!	!	!	!LO:TX:t=P:problem:kreska pseudotaktowa	!	!	!	!LO:TX:t=P:problem:kreska pseudotaktowa	!
2r	.	0r	.	00r	.	2r	.	1r	.
1a	A-	.	.	.	.	1a	A-	.	.
!	!	!	!	!	!	!	!	!LO:TX:t=P:problem:kreska pseudotaktowa	!
.	.	.	.	.	.	.	.	1b-X	A-
*2\right	*	*	*	*	*	*	*	*	*
!LO:TX:t=P:problem:kreska pseudotaktowa	!	!	!	!	!	!	!	!	!
[<2g\	-gnus	.	.	.	.	1g\	.	.	.
=2-	=2-	=2-	=2-	=2-	=2-	=2-	=2-	=2-	=2-
*	*	*	*	*	*	*	*	*2\right	*
!	!	!LO:TX:t=P:problem:kreska pseudotaktowa	!	!	!	!	!	!	!
2g\]	.	1r	.	.	.	.	.	2a\	-gnus
*	*	*	*	*	*	*2\right	*	*	*
!LO:TX:t=P:problem:kreska pseudotaktowa	!	!	!	!	!	!LO:TX:t=P:problem:kreska pseudotaktowa	!	!	!
2f\	[De-	.	.	.	.	2f\	-gnus	1dd	.
2e\	-i]	2r	.	.	.	1e	De-	.	.
*clefF4	*	*	*	*	*	*	*	*	*
!	!	!	!	!	!	!	!	!LO:TX:t=P:problem:kreska pseudotaktowa	!
1A\	A-	1A\	A-	.	.	.	.	2cc#X\	De-
=3-	=3-	=3-	=3-	=3-	=3-	=3-	=3-	=3-	=3-
.	.	.	.	1B-X	A-	2d\	-i	2dd\	-i
!	!	!	!	!	!	!LO:TX:t=P:problem:kreska pseudotaktowa	!	!LO:TX:t=P:problem:kreska pseudotaktowa	!
1G	.	1G	.	.	.	2r	.	2r	.
*	*	*	*	*2\right	*	*	*	*	*
!	!	!	!	!LO:TX:t=P:problem:oddech jako rozdzielacz słów:global	!	!	!	!LO:TX:t=P:problem:kreska pseudotaktowa	!
.	.	.	.	2A,<\	-gnus	1r	.	0r	.
*	*	*2\right	*	*	*	*	*	*	*
!LO:TX:t=P:problem:kreska pseudotaktowa	!	!LO:TX:t=P:problem:kreska pseudotaktowa	!	!	!	!	!	!	!
2F\	-gn(us)	2F\	-gnus	1d\	De-	.	.	.	.
=4-	=4-	=4-	=4-	=4-	=4-	=4-	=4-	=4-	=4-
1E	De-	1E	De-	.	.	2r	.	.	.
!	!	!	!	!	!	!LO:TX:t=P:problem:kreska pseudotaktowa	!	!	!
.	.	.	.	2c#X\	.	2g\	Qui	.	.
!LO:TX:t=P:problem:oddech jako rozdzielacz słów:global	!	!LO:TX:t=P:problem:oddech jako rozdzielacz słów:global	!	!LO:TX:t=P:problem:kreska pseudotaktowa	!	!	!	!	!
2D,</	-i	2D,</	-i	1d,<	-i	2g\	tol-	1a	Qui
!	!	!LO:TX:t=P:problem:kreska pseudotaktowa	!	!	!	!	!	!	!
1d\	Qui	2d\	Qui	.	.	4fn\	-lis	.	.
!	!	!	!	!	!	!LO:TX:t=P:problem:kreska pseudotaktowa	!	!	!
.	.	.	.	.	.	4f\	pec-	.	.
=5-	=5-	=5-	=5-	=5-	=5-	=5-	=5-	=5-	=5-
.	.	2d\	tol-	2r	.	2e\	-ca-	2g/	tol-
!LO:TX:t=P:problem:zbędny znak powtórzenia tekstu	!	!	!	!LO:TX:t=P:problem:kreska pseudotaktowa	!	!LO:TX:t=P:problem:oddech jako rozdzielacz słów:global	!	!	!
2c\	tol-	4c,<\	-lis	2d\	Qui	2f#X,<\	-ta	4a\	.
!	!	!LO:TX:t=P:problem:kreska pseudotaktowa	!	!	!	!	!	!LO:TX:t=P:problem:kreska pseudotaktowa	!
.	.	4c\	pec-	.	.	.	.	4a\	-lis
2B-X\	-lis	2B-X\	-ca-	2d\	tol-	1g	mun-	2.b-X\	pec-
!LO:TX:t=P:problem:kreska pseudotaktowa	!	!	!	!	!	!	!	!	!
2G\	p(e)c-	4G\	-ta	4d\	-lis	.	.	.	.
*	*	*	*ij	*	*	*	*	*	*
!	!	!LO:TX:t=P:problem:kreska pseudotaktowa	!	!LO:TX:t=P:problem:kreska pseudotaktowa	!	!	!	!LO:TX:t=P:problem:kreska pseudotaktowa	!
.	.	4G\	pec-	4d\	pec-	.	.	4g/	-ca-
=6-	=6-	=6-	=6-	=6-	=6-	=6-	=6-	=6-	=6-
!	!	!	!	!	!	!LO:TX:t=P:problem:kreska pseudotaktowa	!	!	!
2c\	-(ca)-	2c\	-ca-	1.cny	-ca-	1e,<	-di	1g	-ta
!	!	!LO:TX:t=P:problem:kreska pseudotaktowa	!	!	!	!	!	!	!
2B-X\	-ta	2B-X\	-ta	.	.	.	.	.	.
*	*	*	*Xij	*	*	*	*	*	*
!	!	!	!	!	!	!LO:TX:t=P:problem:kreska pseudotaktowa	!	!	!
2A\	mun-	2A\	mun-	.	.	[<1fny	mi-	1a	mun-
!	!	!LO:TX:t=P:problem:korekta	!	!	!	!	!	!	!
!	!	!LO:N:vis=4	!	!	!	!	!	!	!
!LO:TX:t=P:problem:kreska pseudotaktowa	!	!LO:TX:t=P:problem:kreska pseudotaktowa	!	!LO:TX:t=P:problem:kreska pseudotaktowa	!	!	!	!	!
2F\	-di	2F\	-di	2c,<\	-ta	.	.	.	.
=7-	=7-	=7-	=7-	=7-	=7-	=7-	=7-	=7-	=7-
!	!	!	!	!	!	!	!	!LO:TX:t=P:problem:kreska pseudotaktowa	!
!	!	!	!	!	!	!	!	!LO:TX:t=P:problem:oddech jako rozdzielacz słów:global	!
2c\	mi-	2c\	mi-	2c\	mun-	2f\]	.	1g,<	-di
!	!	!	!	!LO:TX:t=P:problem:kreska pseudotaktowa	!	!	!	!	!
2C/	-ſe-	2C/	-se-	2c\	-di	1e	.	.	.
4D\	-re-	(4D\	-re-	2A/	mi-	.	.	2.f/	mi-
4E\	.	4E\	.	.	.	.	.	.	.
!	!	!	!	!LO:TX:t=P:problem:kreska pseudotaktowa	!	!LO:TX:t=P:problem:kreska pseudotaktowa	!	!	!
4F\	.	4F\	.	2A/	-ſe-	2d\	-se-	.	.
!LO:TX:t=P:problem:kreska pseudotaktowa	!	!LO:TX:t=P:problem:kreska pseudotaktowa	!	!	!	!	!	!	!
4G\	.	4G\)	.	.	.	.	.	4f/	-ſe-
=8-	=8-	=8-	=8-	=8-	=8-	=8-	=8-	=8-	=8-
2A\	-re	2A\	-re	2A/	-re-	4c#X/	-re-	2e/	-re-
.	.	.	.	.	.	4c#/	-re	.	.
!	!	!	!	!LO:TX:t=P:problem:kreska pseudotaktowa	!	!	!	!LO:TX:t=P:problem:kreska pseudotaktowa	!
2D/	.	2D/	no-	2A/	-re	1d	no-	2f/	-re
2A\	no-	1A	.	1A	no-	.	.	1g	no-
2AA/	-bis.	.	.	.	.	2c#X/	-bis.	.	.
=9-	=9-	=9-	=9-	=9-	=9-	=9-	=9-	=9-	=9-
0D;	.	0D;>	-bis	0A;>	-bis.	0d;	.	0f#X;	-bis.
*clefC1	*	*	*	*	*	*	*	*	*
=10||-	=10||-	=10||-	=10||-	=10||-	=10||-	=10||-	=10||-	=10||-	=10||-
*M2/1	*	*M2/1	*	*M2/1	*	*M2/1	*	*M2/1	*
*met(C|)	*	*met(C|)	*	*met(C|)	*	*met(C|)	*	*met(C|)	*
!	!	!	!	!LO:TX:t=P:problem:kreska pseudotaktowa	!	!LO:TX:t=P:problem:kreska pseudotaktowa	!	!LO:LB:g=original	!
!LO:LB:g=original	!	!LO:LB:g=original	!	!LO:LB:g=original	!	!LO:LB:g=original	!	!	!
2d/	A-	0r	.	0r	.	1r	.	2d/	A-
2d/	-gnus	.	.	.	.	.	.	2d/	-gnus
*clefC3	*	*	*	*	*	*	*	*	*
!LO:TX:t=P:problem:tekst podpisany za ciasno, podłożony domyślnie pod nuty	!	!	!	!	!	!	!	!LO:TX:t=P:problem:kreska pseudotaktowa	!
2A/	a-	.	.	.	.	2A/	A-	1a	De-
2A/	-gn(us)	.	.	.	.	2A/	-gnus	.	.
=11-	=11-	=11-	=11-	=11-	=11-	=11-	=11-	=11-	=11-
*clefC4	*	*	*	*	*	*	*	*	*
!	!	!LO:TX:t=P:problem:kreska pseudotaktowa	!	!	!	!	!	!	!
2D/	De-	1r	.	2D/	A-	1d	De-	2fny,</	-i
2D/	-i	.	.	2D/	-gnus	.	.	2f/	qui
*clefF4	*	*	*	*	*	*	*	*	*
!	!	!	!	!LO:TX:t=P:problem:kreska pseudotaktowa	!	!	!	!	!
2AA/	qui	2AA/	A-	1A	De-	2c#X,<\	-i	2e/	tol-
!	!	!LO:TX:t=P:problem:kreska pseudotaktowa	!	!	!	!LO:TX:t=P:problem:kreska pseudotaktowa	!	!	!
2AA/	tol-	2AA/	-gnus	.	.	2c#\	qui	4a\	lis
!	!	!	!	!	!	!	!	!LO:TX:t=P:problem:kreska pseudotaktowa	!
.	.	.	.	.	.	.	.	4a\	pec-
=12-	=12-	=12-	=12-	=12-	=12-	=12-	=12-	=12-	=12-
!	!	!LO:TX:t=P:problem:kreska pseudotaktowa	!	!	!	!	!	!LO:TX:t=P:problem:kreska pseudotaktowa	!
1D	-lis	1D	De-	2F,</	-i	2d\	tol-	[<0a	-ca-
.	.	.	.	2f\	Qui	4d,<\	-lis	.	.
.	.	.	.	.	.	4d\	pec-	.	.
!LO:TX:t=P:problem:kreska pseudotaktowa	!	!	!	!	!	!	!	!	!
1C#X	pec-	2C#X,</	-i	2e\	tol-	(1e	.	.	.
!	!	!LO:TX:t=P:problem:kreska pseudotaktowa	!	!	!	!	!	!	!
.	.	2C#/	qui	4e\	-lis	.	.	.	.
!	!	!	!	!LO:TX:t=P:problem:kreska pseudotaktowa	!	!	!	!	!
.	.	.	.	4e\	pec-	.	.	.	.
=13-	=13-	=13-	=13-	=13-	=13-	=13-	=13-	=13-	=13-
!	!	!	!	!	!	!LO:TX:t=P:problem:kreska pseudotaktowa	!	!	!
1D	-ca-	2D\	tol-	2d\	-ca-	1f)	-ca-	2a\]	.
.	.	4D\	-lis	2d\	-ta	.	.	2f/	.
!	!	!LO:TX:t=P:problem:kreska pseudotaktowa	!	!	!	!	!	!	!
.	.	4D\	pec-	.	.	.	.	.	.
!	!	!	!	!LO:TX:t=P:problem:kreska pseudotaktowa	!	!	!	!	!
2E\	-ta	2E\	-ca-	[<1c	mun-	2g,<\	-ta	2e/	-ta
!LO:TX:t=P:problem:kreska pseudotaktowa	!	!LO:TX:t=P:problem:kreska pseudotaktowa	!	!	!	!	!	!LO:TX:t=P:problem:kreska pseudotaktowa	!
2F\	mun-	2F\	-ta	.	.	1f\	mun-	2a\	.
=14-	=14-	=14-	=14-	=14-	=14-	=14-	=14-	=14-	=14-
1Cny	-di	1Cny	mun-	1c]	.	.	.	1g	mun-
.	.	.	.	.	.	2e\	-di	.	.
!LO:TX:t=P:problem:kreska pseudotaktowa	!	!LO:TX:t=P:problem:kreska pseudotaktowa	!	!LO:TX:t=P:problem:kreska pseudotaktowa	!	!LO:TX:t=P:problem:kreska pseudotaktowa	!	!	!
1F	mi-	1F	-di	1c,<	-di	1f,<	.	2a,<\	-di
!	!	!	!	!	!	!	!	!LO:TX:t=P:problem:kreska pseudotaktowa	!
.	.	.	.	.	.	.	.	[<2ccny\	mi-
=15-	=15-	=15-	=15-	=15-	=15-	=15-	=15-	=15-	=15-
1BB-X	-ſe-	2.BB-X/	mi-	2.d\	mi-	2r	.	2cc\]	.
.	.	.	.	.	.	1g	mi-	1b-X	.
!	!	!LO:TX:t=P:problem:kreska pseudotaktowa	!	!	!	!	!	!	!
.	.	4BB-/	-ſe-	4d\	-ſe-	.	.	.	.
2C/	-re-	2C/	-re-	2e\	-re-	.	.	.	.
!LO:TX:t=P:problem:kreska pseudotaktowa	!	!LO:TX:t=P:problem:kreska pseudotaktowa	!	!LO:TX:t=P:problem:kreska pseudotaktowa	!	!LO:TX:t=P:problem:kreska pseudotaktowa	!	!LO:TX:t=P:problem:kreska pseudotaktowa	!
2D\	-re	2D/	.	2f\	-re	2f\	-ſe-	2a\	-se-
=16-	=16-	=16-	=16-	=16-	=16-	=16-	=16-	=16-	=16-
2E\	no-	2En\	.	2c#X\	no-	4e\	-re-	2g\	-re-
.	.	.	.	.	.	4e\	-re	.	.
4F\	.	4F\	-re	2d\	.	1d	no-	2f/	-re
!	!	!LO:TX:t=P:problem:kreska pseudotaktowa	!	!	!	!	!	!	!
4G\	.	4G\	.	.	.	.	.	.	.
2A\	.	2A\	no-	1A	.	.	.	1e	no-
2AA/	.	2AA/	.	.	.	2c#X\	.	.	.
=17-	=17-	=17-	=17-	=17-	=17-	=17-	=17-	=17-	=17-
!LO:TX:b:t=3tium Agnus Vertat	!	!	!	!	!	!	!	!	!
0D;>	-bis.	0D;>	-bis.	0A;>	-bis.	0d;>	-bis	0f#X;	-bis
=18||-	=18||-	=18||-	=18||-	=18||-	=18||-	=18||-	=18||-	=18||-	=18||-
!	!	!LO:LB:g=original	!	!	!	!	!	!LO:TX:t=P:problem:kreska pseudotaktowa	!
!LO:PB:g=original	!	!	!	!LO:LB:g=original	!	!LO:LB:g=original	!	!LO:LB:g=original	!
2r	.	2r	.	2r	.	2r	.	1r	.
!	!	!	!	!	!	!LO:TX:t=P:problem:kreska pseudotaktowa	!	!	!
1B-X	A-	1B-X	A-	2d\	A-	2f\	A-	.	.
.	.	.	.	2e-X\	.	2g\	.	1cc	A-
!	!	!	!	!LO:TX:t=P:problem:kreska pseudotaktowa	!	!	!	!	!
1A\	-gnus	1A\	-gnus	2f,<\	-gnus	2a,<\	-gnus	.	.
=19-	=19-	=19-	=19-	=19-	=19-	=19-	=19-	=19-	=19-
!	!	!	!	!	!	!	!	!LO:TX:t=P:problem:kreska pseudotaktowa	!
.	.	.	.	(2d\	De-	(2f\	De-	1b-X,<	-gnus
!LO:TX:t=P:problem:kreska pseudotaktowa	!	!LO:TX:t=P:problem:kreska pseudotaktowa	!	!	!	!	!	!	!
[<2G\	De-	[<2G\	De-	2e-X\)	.	2g\)	.	.	.
2G\]	.	2G\]	.	2cny,<\	-i	2e-X,<\	-i	1a	De-
!	!	!	!	!LO:TX:t=P:problem:kreska pseudotaktowa	!	!LO:TX:t=P:problem:kreska pseudotaktowa	!	!	!
1F\	-i	1F\	-i	2d\	Qui	2f\	qui	.	.
=20-	=20-	=20-	=20-	=20-	=20-	=20-	=20-	=20-	=20-
.	.	.	.	2B-X\	tol-	2d\	tol-	2g\	-i
!	!	!	!	!LO:TX:t=P:problem:kreska pseudotaktowa	!	!	!	!LO:TX:t=P:problem:kreska pseudotaktowa	!
1E-X	qui	1E-X	qui	2c\	.	2e-X\	.	2g\	qui
.	.	.	.	2F,</	-lis	2cny,</	-lis	2a\	tol-
!LO:TX:t=P:problem:kreska pseudotaktowa	!	!LO:TX:t=P:problem:kreska pseudotaktowa	!	!	!	!	!	!	!
2D\	tol-	2D\	tol-	2B-X\	qui	4d\	pec-	1b-X\	.
!	!	!	!	!	!	!LO:TX:t=P:problem:kreska pseudotaktowa	!	!	!
.	.	.	.	.	.	4e-\	.	.	.
=21-	=21-	=21-	=21-	=21-	=21-	=21-	=21-	=21-	=21-
(>2C/	-lis	2C,</	-lis	2e-X\	tol-	(4g\	-ca-	.	.
.	.	.	.	.	.	4e-X\)	.	.	.
2F\)	.	2F\	pec-	4e-\	.	4c,</	-ta	2a\	.
!	!	!	!	!LO:TX:t=P:problem:kreska pseudotaktowa	!	!LO:TX:t=P:problem:kreska pseudotaktowa	!	!	!
.	.	.	.	4e-\	-lis	4c/	pec-	.	.
(<4BB-X/	pec-	4BB-X/	.	(1d	pec-	4d\	.	2b-X,<\	-lis
4C/)	.	4C/	.	.	.	4e-\	.	.	.
!	!	!	!	!	!	!	!	!LO:TX:t=P:problem:kreska pseudotaktowa	!
(<4D/	.	(<4D/	.	.	.	2f\	.	2b-\	pec-
!	!	!LO:TX:t=P:problem:kreska pseudotaktowa	!	!	!	!	!	!	!
4E-X\)	.	4E-X\)	.	.	.	.	.	.	.
=22-	=22-	=22-	=22-	=22-	=22-	=22-	=22-	=22-	=22-
!	!	!	!	!	!	!LO:TX:t=P:problem:kreska pseudotaktowa	!	!	!
1F	-ca-	1F	-ca-	1c)	-ca-	1f	-ca-	1a	-ca-
2F#X,<\	-ta	2F#X,<\	-ta	2d,<\	-ta	2f#X,<\	-ta	2a,<\	-ta
*	*ij	*	*ij	*	*ij	*	*ij	*	*ij
!LO:TX:t=P:problem:kreska pseudotaktowa	!	!LO:TX:t=P:problem:kreska pseudotaktowa	!	!LO:TX:t=P:problem:kreska pseudotaktowa	!	!	!	!LO:TX:t=P:problem:kreska pseudotaktowa	!
2D\	pec-	2D\	pec-	2d\	pec-	2f#\	pec-	2a\	pec-
=23-	=23-	=23-	=23-	=23-	=23-	=23-	=23-	=23-	=23-
2G\	-ca-	2G\	-ca-	2d\	-ca-	2g\	-ca-	2b-X\	-ca-
!	!	!	!	!	!	!LO:TX:t=P:problem:kreska pseudotaktowa	!	!LO:TX:t=P:problem:kreska pseudotaktowa	!
2Fny\	-ta	2Fny\	-ta	2d,<\	-ta	2a\	-ta	2fny,</	-ta
*	*Xij	*	*Xij	*	*Xij	*	*Xij	*	*Xij
(2En\	mun-	2En\	mun-	(2c#X\	mun-	(2g\	mun-	(2g\	mun-
!LO:TX:t=P:problem:kreska pseudotaktowa	!	!LO:TX:t=P:problem:kreska pseudotaktowa	!	!	!	!	!	!LO:TX:t=P:problem:kreska pseudotaktowa	!
2D\)	.	2D\	.	2d\)	.	2fny\)	.	2a\)	.
=24-	=24-	=24-	=24-	=24-	=24-	=24-	=24-	=24-	=24-
2A\	-di	2A\	-di	2c#X\	-di	2eny\	-di	2a,<\	-di
!LO:TX:t=P:problem:kreska pseudotaktowa	!	!LO:TX:t=P:problem:kreska pseudotaktowa	!	!LO:TX:t=P:problem:kreska pseudotaktowa	!	!LO:TX:t=P:problem:kreska pseudotaktowa	!	!	!
2r	.	2r	.	2r	.	2r	.	2a\	Qui
!	!	!	!	!	!	!	!	!LO:TX:t=P:problem:kreska pseudotaktowa	!
2r	.	2r	.	2r	.	2r	.	[<1b-X	tol-
!	!	!LO:TX:t=P:problem:kreska pseudotaktowa	!	!LO:TX:t=P:problem:kreska pseudotaktowa	!	!	!	!	!
2G\	Qui	2G\	Qui	2d\	Qui	1g\	Qui	.	.
=25-	=25-	=25-	=25-	=25-	=25-	=25-	=25-	=25-	=25-
!	!	!	!	!LO:LB:g=original	!	!	!	!	!
2C#X/	tol-	2C#X/	tol-	2e\	tol-	.	.	2b-\]	.
!	!	!	!	!	!	!	!	!LO:SIC:v:t=custos a	!
!LO:TX:t=P:problem:kreska pseudotaktowa	!	!	!	!	!	!	!	!LO:TX:t=P:problem:kreska pseudotaktowa	!
2D/	.	2D/	.	4f\	.	2f\	tol-	2a\	.
!	!	!	!	!LO:TX:t=P:problem:kreska pseudotaktowa	!	!	!	!	!
.	.	.	.	[<4d\	.	.	.	.	.
!LO:LB:g=original	!	!LO:TX:t=P:problem:kreska pseudotaktowa	!	!	!	!LO:TX:t=P:problem:kreska pseudotaktowa	!	!LO:LB:g=original	!
1A	-lis	1A	.	2d\]	.	1e	.	2a,<\	-lis
!	!	!	!	!	!	!	!	!LO:TX:t=P:problem:kreska pseudotaktowa	!
.	.	.	.	2c#X\	.	.	.	2a\	qui
=26-	=26-	=26-	=26-	=26-	=26-	=26-	=26-	=26-	=26-
!	!	!	!	!LO:TX:t=P:problem:kreska pseudotaktowa	!	!LO:TX:t=P:problem:kreska pseudotaktowa	!	!	!
!	!	!LO:LB:g=original	!	!	!	!LO:LB:g=original	!	!	!
2D,</	.	2D,</	-lis	1d,<	-lis	1f,<	-lis	1a	tol-
4D/	pec-	4D/	qui	.	.	.	.	.	.
4Cny/	.	4Cny/	.	.	.	.	.	.	.
2BBn/	-ca-	2BBn/	tol-	2r	.	1r	.	2.g/	.
!LO:TX:t=P:problem:kreska pseudotaktowa	!	!	!	!LO:TX:t=P:problem:kreska pseudotaktowa	!	!	!	!	!
2GG/	.	2GG/	.	[<2d\	Qui	.	.	.	.
.	.	.	.	.	.	.	.	4f/	.
=27-	=27-	=27-	=27-	=27-	=27-	=27-	=27-	=27-	=27-
1C	.	1C	.	2d\]	.	1g	Qui	1e-X	.
!	!	!	!	!LO:TX:t=P:problem:kreska pseudotaktowa	!	!	!	!	!
.	.	.	.	[<2cny\	tol-	.	.	.	.
!LO:TX:t=P:problem:kreska pseudotaktowa	!	!	!	!	!	!	!	!	!
1D	.	1D	.	2c\]	.	2fn\	tol-	2d,</	-lis
!	!	!	!	!LO:TX:t=P:problem:kreska pseudotaktowa	!	!LO:TX:t=P:problem:kreska pseudotaktowa	!	!LO:TX:t=P:problem:kreska pseudotaktowa	!
.	.	.	.	2Bn\	.	2f\	-lis	2dd\	pec-
=28-	=28-	=28-	=28-	=28-	=28-	=28-	=28-	=28-	=28-
2E,<\	-ta	2E,<\	-lis	4c\	-lis	(4en\	pec-	(2cc\	-ca-
!	!	!	!	!LO:SIC:v:s=4e\	!	!	!	!	!
.	.	.	.	4e-X\	pec-	4g\)	.	.	.
!	!	!LO:TX:t=P:problem:kreska pseudotaktowa	!	!	!	!	!	!LO:TX:t=P:problem:kreska pseudotaktowa	!
2F\	pec-	2F\	pec-	4d\	.	4f\	.	2a\)	.
!	!	!	!	!LO:TX:t=P:problem:kreska pseudotaktowa	!	!	!	!	!
.	.	.	.	4c\	.	4e\	.	.	.
!LO:TX:t=P:problem:kreska pseudotaktowa	!	!	!	!	!	!	!	!	!
[<0.G	-ca-	[<0.G	-ca-	4Bn\	-ca-	2d\	-ca-	2g,<\	-ta
.	.	.	.	4A\	.	.	.	.	.
.	.	.	.	4G/	.	4d,<\	-ta	(4g\	pec-
!	!	!	!	!LO:TX:t=P:problem:kreska pseudotaktowa	!	!LO:TX:t=P:problem:kreska pseudotaktowa	!	!LO:TX:t=P:problem:kreska pseudotaktowa	!
.	.	.	.	4d\	.	4g\	pec-	4bny\)	.
=29-	=29-	=29-	=29-	=29-	=29-	=29-	=29-	=29-	=29-
!	!	!LO:TX:t=P:problem:kreska pseudotaktowa	!	!	!	!	!	!	!
.	.	.	.	(2e-X\	.	1g	-ca-	2cc\	-ca-
.	.	.	.	2d\)	.	.	.	(2b-X\	-ta
!	!	!	!	!	!	!LO:TX:t=P:problem:kreska pseudotaktowa	!	!	!
.	.	.	.	(2e-X\	-ta	1g	-ta	2cc,<\)	.
!	!	!	!	!LO:TX:t=P:problem:kreska pseudotaktowa	!	!	!	!LO:TX:t=P:problem:kreska pseudotaktowa	!
.	.	.	.	2d\)	.	.	.	2b-\	pec-
=30-	=30-	=30-	=30-	=30-	=30-	=30-	=30-	=30-	=30-
2G\]	.	2G\]	.	2c#X\	mun-	2en\	pec-	2a\	-ca-
!	!	!	!	!	!	!	!	!LO:TX:t=P:problem:kreska pseudotaktowa	!
2F\	.	2F\	.	2d\	.	2d\	.	2a\	-ta
2En\	-ta	2En\	-ta	2e\	.	2c#X/	-ca-	2g/	mun-
!	!	!LO:TX:t=P:problem:kreska pseudotaktowa	!	!LO:TX:t=P:problem:kreska pseudotaktowa	!	!	!	!	!
2D/	mun-	2D/	.	2A/	.	2d/	.	2f/	.
=31-	=31-	=31-	=31-	=31-	=31-	=31-	=31-	=31-	=31-
(1A	.	(1A	mun-	0A	.	1c#X	-ta	1eny	.
1AA)	.	1AA)	.	.	.	1d	mun-	1f	.
=32-	=32-	=32-	=32-	=32-	=32-	=32-	=32-	=32-	=32-
0AA;>	-di	0AA;>	-di	0A;>	-di.	0c#X;>	-di	0e;>	-di.
=33||-	=33||-	=33||-	=33||-	=33||-	=33||-	=33||-	=33||-	=33||-	=33||-
*M3/2	*	*M3/2	*	*M3/2	*	*M3/2	*	*M3/2	*
!	!	!	!	!LO:LB:g=original	!	!	!	!LO:LB:g=original	!
(4F\	Do-	(4F\	Do-	1cny	Do-	1f	Do-	1a	Do-
4E\)	.	4E\)	.	.	.	.	.	.	.
(4F\	-na	(4F\	-na	.	.	.	.	.	.
4G\)	.	4G\)	.	.	.	.	.	.	.
!	!	!	!	!LO:TX:t=P:problem:kreska pseudotaktowa	!	!LO:TX:t=P:problem:kreska pseudotaktowa	!	!LO:TX:t=P:problem:kreska pseudotaktowa	!
4A\	.	4A\	.	2c\	-na	[<2f\	-na	2a\	-na
!LO:TX:t=P:problem:kreska pseudotaktowa	!	!LO:TX:t=P:problem:kreska pseudotaktowa	!	!	!	!	!	!	!
4Bny\	.	4Bny\	.	.	.	.	.	.	.
=34-	=34-	=34-	=34-	=34-	=34-	=34-	=34-	=34-	=34-
4c\	no-	4c\	no-	1c	no-	2f\]	.	1g	no-
4C/	.	4C/	.	.	.	.	.	.	.
4E/	.	4E/	.	.	.	2en\	no-	.	.
4D/	.	4D/	.	.	.	.	.	.	.
!	!	!	!	!LO:TX:t=P:problem:kreska pseudotaktowa	!	!LO:TX:t=P:problem:kreska pseudotaktowa	!	!	!
4E/	.	4E/	.	2c\	-bis	[>2e\	-bis	2g\	-bis
!LO:TX:t=P:problem:kreska pseudotaktowa	!	!LO:TX:t=P:problem:kreska pseudotaktowa	!	!	!	!	!	!	!
4C/	.	4C/	.	.	.	.	.	.	.
=35-	=35-	=35-	=35-	=35-	=35-	=35-	=35-	=35-	=35-
4D\	.	4D\	.	1.A	pa-	2e\]	.	1.f	pa-
4C\	.	4C\	.	.	.	.	.	.	.
4D\	.	4D\	.	.	.	2d\	do-	.	.
4E\	-bis	4E\	-bis	.	.	.	.	.	.
!	!	!	!	!	!	!LO:TX:t=P:problem:kreska pseudotaktowa	!	!	!
4F\	.	4F\	.	.	.	[>2d\	-na	.	.
!LO:TX:t=P:problem:kreska pseudotaktowa	!	!LO:TX:t=P:problem:kreska pseudotaktowa	!	!	!	!	!	!	!
4G\	.	4G\	.	.	.	.	.	.	.
=36-	=36-	=36-	=36-	=36-	=36-	=36-	=36-	=36-	=36-
!LO:LB:g=original	!	!	!	!LO:TX:t=P:problem:kreska pseudotaktowa	!	!	!	!	!
4A\	pa-	4A\	pa-	1.A	-cem	2d\]	.	1e,<	-cem
4AA/	.	4AA/	.	.	.	.	.	.	.
4C/	.	4C/	.	.	.	2cny\	no-	.	.
4BB-X/	.	4BB-X/	.	.	.	.	.	.	.
!	!	!	!	!	!	!LO:TX:t=P:problem:kreska pseudotaktowa	!	!LO:TX:t=P:problem:kreska pseudotaktowa	!
4AA/	.	4AA/	.	.	.	2f\	-bis	[<2cc\	do-
!LO:TX:t=P:problem:kreska pseudotaktowa	!	!LO:TX:t=P:problem:kreska pseudotaktowa	!	!	!	!	!	!	!
4FF/	.	4FF/	.	.	.	.	.	.	.
=37-	=37-	=37-	=37-	=37-	=37-	=37-	=37-	=37-	=37-
*	*	*	*	*	*ij	*	*	*	*
!	!	!	!	!	!	!LO:TX:a:t=3	!	!	!
!	!	!LO:LB:g=original	!	!	!	!LO:LB:g=original	!	!	!
4BB-X/	.	4BB-X/	.	1.d	Do-	[<2%9f	pa-	2cc\]	.
4AA/	.	4AA/	.	.	.	.	.	.	.
4BB-/	.	4BB-/	.	.	.	.	.	2b-X\	-na
4C/	.	4C/	.	.	.	.	.	.	.
!	!	!	!	!	!	!	!	!LO:TX:t=P:problem:kreska pseudotaktowa	!
4D\	.	4D\	.	.	.	.	.	2b-\	.
!LO:TX:t=P:problem:kreska pseudotaktowa	!	!LO:TX:t=P:problem:kreska pseudotaktowa	!	!	!	!	!	!	!
4E\	.	4E\	.	.	.	.	.	.	.
=38-	=38-	=38-	=38-	=38-	=38-	=38-	=38-	=38-	=38-
!	!	!	!	!LO:TX:t=P:problem:kreska pseudotaktowa	!	!	!	!	!
4F\	.	4F\	.	1.c	-na	.	.	2a\	no-
4C/	.	4C\	.	.	.	.	.	.	.
!	!	!	!	!	!	!	!	!LO:TX:t=P:problem:kreska pseudotaktowa	!
4AA/	.	4AA/	.	.	.	.	.	[<1cc	.
4C/	.	4C/	.	.	.	.	.	.	.
4AA/	.	4AA/	.	.	.	.	.	.	.
!LO:TX:t=P:problem:kreska pseudotaktowa	!	!LO:TX:t=P:problem:kreska pseudotaktowa	!	!	!	!	!	!	!
4FF/	.	4FF/	.	.	.	.	.	.	.
=39-	=39-	=39-	=39-	=39-	=39-	=39-	=39-	=39-	=39-
!	!	!	!	!	!	!LO:TX:t=P:problem:kreska pseudotaktowa	!	!	!
1BB-X	.	1BB-X	.	1d	no-	.	.	2cc\]	.
.	.	.	.	.	.	.	.	2b-X\	-bis
!	!	!	!	!	!	!	!	!LO:TX:t=P:problem:kreska pseudotaktowa	!
2F\	.	2F\	-cem	2c\	-bis	.	.	2a\	.
=40-	=40-	=40-	=40-	=40-	=40-	=40-	=40-	=40-	=40-
!	!	!	!	!	!	!	!	!LO:TX:t=P:problem:kreska pseudotaktowa	!
2BB-X/	.	2BB-X/	pa-	(2d\	pa-	1f]	.	1.g	pa-
!LO:TX:t=P:problem:kreska pseudotaktowa	!	!LO:TX:t=P:problem:kreska pseudotaktowa	!	!LO:TX:t=P:problem:kreska pseudotaktowa	!	!	!	!	!
1C	.	1C	-cem	1c)	.	.	.	.	.
!	!	!	!	!	!	!LO:TX:t=P:problem:kreska pseudotaktowa	!	!	!
.	.	.	.	.	.	2e\	-cem	.	.
=41-	=41-	=41-	=41-	=41-	=41-	=41-	=41-	=41-	=41-
2F,<\	-cem	2F,<\	.	2c,<\	-cem	2f,<\	.	2a,<\	-cem
*	*	*	*	*	*Xij	*	*	*	*
2D\	do-	2D\	do-	2d\	do-	2f\	do-	2bn\	do-
!	!	!	!	!LO:TX:t=P:problem:kreska pseudotaktowa	!	!LO:TX:t=P:problem:kreska pseudotaktowa	!	!LO:TX:t=P:problem:kreska pseudotaktowa	!
2C,</	-na	2C/	-na	2en\	-na	2g\	-na	2cc\	-na
=42-	=42-	=42-	=42-	=42-	=42-	=42-	=42-	=42-	=42-
2F\	pa-	2F\	pa-	2A/	pa-	4f\	no-	1cc	pa-
.	.	.	.	.	.	4e\	-bis	.	.
!LO:TX:t=P:problem:kreska pseudotaktowa	!	!LO:TX:t=P:problem:kreska pseudotaktowa	!	!	!	!	!	!	!
1G	.	1G	.	1G	.	1d	pa-	.	.
!	!	!	!	!	!	!	!	!LO:TX:t=P:problem:kreska pseudotaktowa	!
.	.	.	.	.	.	.	.	2b-X\	.
=43-	=43-	=43-	=43-	=43-	=43-	=43-	=43-	=43-	=43-
2C/	-cem	2C/	-cem	2G/	-cem	2e,<\	-cem	2cc,<\	-cem
*clefC3	*	*	*	*	*	*	*	*	*
2c\	.	2r	.	2r	.	2c/	do-	2cc\	do-
!LO:TX:t=P:problem:kreska pseudotaktowa	!	!LO:TX:t=P:problem:kreska pseudotaktowa	!	!LO:TX:t=P:problem:kreska pseudotaktowa	!	!LO:TX:t=P:problem:kreska pseudotaktowa	!	!LO:TX:t=P:problem:kreska pseudotaktowa	!
2c\	.	2r	.	2r	.	2c/	-na	2cc\	-na
=44-	=44-	=44-	=44-	=44-	=44-	=44-	=44-	=44-	=44-
2.d\	.	0.r	.	0.r	.	(2.d\	no-	2.b-X\	no-
4c\	.	.	.	.	.	4c\	.	4a\	.
4d\	.	.	.	.	.	4d\	.	4b-\	.
!LO:TX:t=P:problem:kreska pseudotaktowa	!	!	!	!	!	!LO:TX:t=P:problem:kreska pseudotaktowa	!	!LO:TX:t=P:problem:kreska pseudotaktowa	!
4e\	.	.	.	.	.	4e\)	.	4cc\	.
=45-	=45-	=45-	=45-	=45-	=45-	=45-	=45-	=45-	=45-
!	!	!	!	!	!	!	!	!LO:LB:g=original	!
1f	.	.	.	.	.	2f,<\	-bis	2a,<\	-bis
.	.	.	.	.	.	2f\	do-	2a\	do-
!LO:TX:t=P:problem:kreska pseudotaktowa	!	!	!	!	!	!LO:TX:t=P:problem:kreska pseudotaktowa	!	!LO:TX:t=P:problem:kreska pseudotaktowa	!
2f\	.	.	.	.	.	2f\	-na	2a\	-na
=46-	=46-	=46-	=46-	=46-	=46-	=46-	=46-	=46-	=46-
!	!	!LO:TX:t=P:problem:kreska pseudotaktowa	!	!LO:TX:t=P:problem:kreska pseudotaktowa	!	!	!	!	!
2.d\	.	1.r	.	1.r	.	(2.d\	no-	2.b-X\	.
4d\	.	.	.	.	.	4d\	.	4a\	no-
4e\	.	.	.	.	.	4e\	.	4b-\	.
!	!	!	!	!	!	!LO:TX:t=P:problem:kreska pseudotaktowa	!	!LO:TX:t=P:problem:kreska pseudotaktowa	!
4f\	.	.	.	.	.	4f\)	.	4a\	.
*clefF4	*	*	*	*	*	*	*	*	*
=47-	=47-	=47-	=47-	=47-	=47-	=47-	=47-	=47-	=47-
!LO:LB:g=original	!	!	!	!	!	!	!	!	!
4C/	Do-	4C/	Do-	1c	Do-	2g,<\	-bis	1g	.
4BBn/	-na	4BBn/	-na	.	.	.	.	.	.
4C/	.	4C/	.	.	.	2e\	do-	.	.
4D/	.	4D/	.	.	.	.	.	.	.
!	!	!	!	!LO:TX:t=P:problem:kreska pseudotaktowa	!	!LO:TX:t=P:problem:kreska pseudotaktowa	!	!LO:TX:t=P:problem:kreska pseudotaktowa	!
4E/	.	4E/	.	2c\	-na	2e\	-na	2g/	-bis
!LO:TX:t=P:problem:kreska pseudotaktowa	!	!LO:TX:t=P:problem:kreska pseudotaktowa	!	!	!	!	!	!	!
4C/	.	4C/	.	.	.	.	.	.	.
=48-	=48-	=48-	=48-	=48-	=48-	=48-	=48-	=48-	=48-
4F\	no-	4F\	no-	1c	no-	1f	no-	1a	do-
4E\	.	4E\	.	.	.	.	.	.	.
4F\	.	4F\	.	.	.	.	.	.	.
4G\	.	4G\	.	.	.	.	.	.	.
!	!	!	!	!LO:TX:t=P:problem:kreska pseudotaktowa	!	!	!	!	!
4F\	.	4F\	.	2c\	-bis	2f\	-bis	2a\	-na
!LO:TX:t=P:problem:kreska pseudotaktowa	!	!	!	!	!	!	!	!	!
4E\	.	4E\	.	.	.	.	.	.	.
=49-	=49-	=49-	=49-	=49-	=49-	=49-	=49-	=49-	=49-
!	!	!	!	!	!	!LO:TX:t=P:problem:kreska pseudotaktowa	!	!	!
1D	.	1D	.	1d	pa-	[<1.f	pa-	(2a\	no-
.	.	.	.	.	.	.	.	2b-X\)	.
!	!	!LO:TX:t=P:problem:kreska pseudotaktowa	!	!LO:TX:t=P:problem:kreska pseudotaktowa	!	!	!	!LO:TX:t=P:problem:kreska pseudotaktowa	!
2AA/	-bis	2AA/	-bis	2c\	.	.	.	2cc\	-bis
=50-	=50-	=50-	=50-	=50-	=50-	=50-	=50-	=50-	=50-
!	!	!	!	!	!	!	!	!LO:N:vis=2.	!
2BB/	pa-	2BB/	pa-	4B\	.	1f]	.	2dd\	pa-
.	.	.	.	4A\	.	.	.	.	.
!	!	!	!	!LO:SIC:v:t=custos a	!	!	!	!	!
!LO:TX:t=P:problem:kreska pseudotaktowa	!	!LO:TX:t=P:problem:kreska pseudotaktowa	!	!LO:TX:t=P:problem:kreska pseudotaktowa	!	!	!	!LO:TX:t=P:problem:kreska pseudotaktowa	!
1C,<	-cem	1C,<	-cem	1G	.	.	.	1cc	.
!	!	!	!	!	!	!LO:TX:t=P:problem:kreska pseudotaktowa	!	!	!
.	.	.	.	.	.	2e\	.	.	.
=51-	=51-	=51-	=51-	=51-	=51-	=51-	=51-	=51-	=51-
!	!	!	!	!LO:LB:g=original	!	!LO:LB:g=original	!	!	!
4F\	Do-	4F\	Do-	2A,<\	-cem	2f,<\	-cem	2cc,<\	-cem
4E\	.	4E\	.	.	.	.	.	.	.
4F\	.	4F\	.	2c\	Do-	2f\	Do-	2cc\	do-
4G\	.	4G\	.	.	.	.	.	.	.
!	!	!	!	!LO:TX:t=P:problem:kreska pseudotaktowa	!	!LO:TX:t=P:problem:kreska pseudotaktowa	!	!LO:TX:t=P:problem:kreska pseudotaktowa	!
4A\	.	4A\	.	2c\	-na	[<2f\	-na	2cc\	-na
!LO:TX:t=P:problem:kreska pseudotaktowa	!	!	!	!	!	!	!	!	!
4F\	.	4F\	.	.	.	.	.	.	.
=52-	=52-	=52-	=52-	=52-	=52-	=52-	=52-	=52-	=52-
*	*	*	*	*	*ij	*	*	*	*
2c\	.	2c\	-na	1c	Do-	2f]	.	2cc\	no-
!	!	!	!	!	!	!	!	!LO:TX:t=P:problem:kreska pseudotaktowa	!
2C/	-na	2C/	.	.	.	2en\	no-	1g	-bis
!LO:TX:t=P:problem:kreska pseudotaktowa	!	!LO:TX:t=P:problem:kreska pseudotaktowa	!	!	!	!LO:TX:t=P:problem:kreska pseudotaktowa	!	!	!
2C#X/	.	2C#X/	.	2A/	-na	[<2e\	-bis	.	.
*	*	*	*	*	*Xij	*	*	*	*
=53-	=53-	=53-	=53-	=53-	=53-	=53-	=53-	=53-	=53-
!	!	!LO:LB:g=original	!	!	!	!	!	!	!
4D\	no-	(4D\	no-	1A	no-	2e,<\]	.	1.f	pa-
!LO:TX:a:t=P:problem:# above	!	!LO:TX:a:t=P:problem:# above	!	!	!	!	!	!	!
4C#X\	.	4C#X\	.	.	.	.	.	.	.
4D\	.	4D\)	.	.	.	2d\	Do-	.	.
4E\	.	4E\	.	.	.	.	.	.	.
!	!	!	!	!LO:TX:t=P:problem:kreska pseudotaktowa	!	!LO:TX:t=P:problem:kreska pseudotaktowa	!	!	!
4F\	.	(4F\	-bis	2A/	-bis	[<2d\	-na	.	.
!LO:TX:t=P:problem:kreska pseudotaktowa	!	!LO:TX:t=P:problem:kreska pseudotaktowa	!	!	!	!	!	!	!
4G\	.	4G\)	.	.	.	.	.	.	.
=54-	=54-	=54-	=54-	=54-	=54-	=54-	=54-	=54-	=54-
2A\	.	2A\	pa-	2A\	pa-	2d\]	.	2e/	.
2AA/	-bis	2AA/	-cem	2A,<\	-cem	2c#X\	no-	2e/	-cem
*clefC4	*	*	*	*	*	*	*	*	*
!LO:TX:t=P:problem:kreska pseudotaktowa	!	!LO:TX:t=P:problem:kreska pseudotaktowa	!	!LO:TX:t=P:problem:kreska pseudotaktowa	!	!LO:TX:t=P:problem:kreska pseudotaktowa	!	!LO:TX:t=P:problem:kreska pseudotaktowa	!
2A\	.	2r	.	2A\	Do-	[<2a\	-bis	2r	.
=55-	=55-	=55-	=55-	=55-	=55-	=55-	=55-	=55-	=55-
1Bn	.	1.r	.	(1Bn	-na	2a\]	.	1.r	.
.	.	.	.	.	.	2g\	do-	.	.
!LO:TX:t=P:problem:kreska pseudotaktowa	!	!	!	!	!	!LO:TX:t=P:problem:kreska pseudotaktowa	!	!	!
2c#X\	.	.	.	2c#X\)	.	[<2g\	-na	.	.
=56-	=56-	=56-	=56-	=56-	=56-	=56-	=56-	=56-	=56-
2d\	.	2r	.	1d	no-	2g\]	.	1a	do-
*clefF4	*	*	*	*	*	*	*	*	*
2d\	Do-	2d\	do-	.	.	2fn\	no-	.	.
!LO:TX:t=P:problem:kreska pseudotaktowa	!	!LO:TX:t=P:problem:kreska pseudotaktowa	!	!LO:TX:t=P:problem:kreska pseudotaktowa	!	!LO:TX:t=P:problem:kreska pseudotaktowa	!	!	!
2d\	-na	2d\	-na	2d\	-bis	2f\	-bis	2a\	-na
=57-	=57-	=57-	=57-	=57-	=57-	=57-	=57-	=57-	=57-
*	*	*	*ij	*	*	*	*	*	*
!LO:LB:g=original	!	!LO:TX:t=P:problem:kreska pseudotaktowa	!	!	!	!	!	!	!
1.G#X	no-	1.G#X	do-	1d	Do-	1e	do-	1bn	no-
!	!	!	!	!LO:TX:t=P:problem:kreska pseudotaktowa	!	!	!	!LO:TX:t=P:problem:kreska pseudotaktowa	!
.	.	.	.	2d\	-na	2e\	-na	2b\	-bis
=58-	=58-	=58-	=58-	=58-	=58-	=58-	=58-	=58-	=58-
2A,<\	-bis	2A,<\	-na	2.cn\	no-	2e\	pa-	1.a	pa-
*	*	*	*Xij	*	*	*	*	*	*
!LO:TX:t=P:problem:kreska pseudotaktowa	!	!LO:TX:t=P:problem:kreska pseudotaktowa	!	!	!	!LO:TX:t=P:problem:kreska pseudotaktowa	!	!	!
1F	pa-	1F	no-	.	.	1d	-cem	.	.
.	.	.	.	4B\	.	.	.	.	.
.	.	.	.	2A\	-bis	.	.	.	.
=59-	=59-	=59-	=59-	=59-	=59-	=59-	=59-	=59-	=59-
!	!	!	!	!	!	!	!	!LO:TX:t=P:problem:kreska pseudotaktowa	!
2E,<\	-cem	2E,<\	-bis	2Bn\	pa-	2e,<\	.	1.g#X	-cem
2.E\	pa-	2.E\	pa-	2B,<\	-cem	2e\	Do-	.	.
!	!	!	!	!LO:TX:t=P:problem:kreska pseudotaktowa	!	!LO:TX:t=P:problem:kreska pseudotaktowa	!	!	!
.	.	.	.	2B\	Do-	2e\	-na	.	.
!LO:TX:t=P:problem:kreska pseudotaktowa	!	!	!	!	!	!	!	!	!
4D/	.	4D/	.	.	.	.	.	.	.
=60-	=60-	=60-	=60-	=60-	=60-	=60-	=60-	=60-	=60-
!	!	!	!	!	!	!	!	!LO:LB:g=original	!
1C#X	.	1C#X	.	1c#X	.	1e	no-	1a	do-
!LO:TX:t=P:problem:kreska pseudotaktowa	!	!LO:TX:t=P:problem:kreska pseudotaktowa	!	!LO:TX:t=P:problem:kreska pseudotaktowa	!	!LO:TX:t=P:problem:kreska pseudotaktowa	!	!	!
2C#/	-cem	2C#/	-cem	2c#\	-na	2e\	-bis	2a\	-na
=61-	=61-	=61-	=61-	=61-	=61-	=61-	=61-	=61-	=61-
*	*	*	*	*	*	*	*ij	*	*
2.D\	do-	2.D\	do-	1A	no-	1d	Do-	1f#X	no-
4E\	-na	4E\	.	.	.	.	.	.	.
!	!	!	!	!LO:TX:t=P:problem:kreska pseudotaktowa	!	!LO:TX:t=P:problem:kreska pseudotaktowa	!	!LO:TX:t=P:problem:kreska pseudotaktowa	!
4D\	.	(4D\	-na	2A\	-bis	2d\	-na	2f#/	-bis
!LO:TX:t=P:problem:kreska pseudotaktowa	!	!LO:TX:t=P:problem:kreska pseudotaktowa	!	!	!	!	!	!	!
4Cny\	.	4Cny\)	.	.	.	.	.	.	.
=62-	=62-	=62-	=62-	=62-	=62-	=62-	=62-	=62-	=62-
*	*	*	*	*	*ij	*	*	*	*
1BBn	no-	1BBn	no-	1Bn	Do-	1d	no-	(2.gny/	pa-
.	.	.	.	.	.	.	.	4a/	.
!LO:TX:t=P:problem:kreska pseudotaktowa	!	!LO:TX:t=P:problem:kreska pseudotaktowa	!	!	!	!LO:TX:t=P:problem:kreska pseudotaktowa	!	!	!
2BB/	-bis	2BB/	-bis	2B\	-na	2d\	-bis	4g/)	.
*	*	*	*	*	*	*	*Xij	*	*
.	.	.	.	.	.	.	.	4fny/	.
=63-	=63-	=63-	=63-	=63-	=63-	=63-	=63-	=63-	=63-
*	*	*	*ij	*	*	*	*	*	*
!	!	!	!	!	!	!LO:LB:g=original	!	!	!
2.C/	pa-	2.C/	do-	1G	no-	1cny	do-	1e	.
4D/	.	4D/	.	.	.	.	.	.	.
!	!	!	!	!LO:TX:t=P:problem:kreska pseudotaktowa	!	!	!	!LO:TX:t=P:problem:kreska pseudotaktowa	!
4C/	.	4C/	.	2G/	-bis	2c\	-na	2e/	-cem
*	*	*	*	*	*Xij	*	*	*	*
!LO:TX:t=P:problem:kreska pseudotaktowa	!	!LO:TX:t=P:problem:kreska pseudotaktowa	!	!	!	!	!	!	!
4BB-X/	.	4BB-X/	-na	.	.	.	.	.	.
=64-	=64-	=64-	=64-	=64-	=64-	=64-	=64-	=64-	=64-
!	!	!	!	!LO:LB:g=original	!	!	!	!	!
1AA	.	1AA	no-	1A	Do-	1c	no-	1f	do-
2FF/	.	2FF/	-bis	2cny\	-na	2f\	-bis	2a\	-na
*	*	*	*Xij	*	*	*	*	*	*
=65-	=65-	=65-	=65-	=65-	=65-	=65-	=65-	=65-	=65-
!	!	!	!	!	!	!LO:TX:t=P:problem:kreska pseudotaktowa	!	!	!
1BB-X	.	1BB-X	pa-	1d	no-	[<1.f	pa-	1b-X	no-
!	!	!LO:SIC:v:t=custos C	!	!	!	!	!	!	!
!LO:TX:t=P:problem:kreska pseudotaktowa	!	!LO:TX:t=P:problem:kreska pseudotaktowa	!	!	!	!	!	!	!
2F\	.	2F\	.	2c\	-bis	.	.	2a,<\	-bis
=66-	=66-	=66-	=66-	=66-	=66-	=66-	=66-	=66-	=66-
!	!	!LO:LB:g=original	!	!	!	!	!	!	!
2C/	.	2C/	.	2c\	pa-	2f\]	.	(1g	pa-
2C,</	-cem	2C,</	-cem	2c,<\	-cem	2e\	-cem	.	.
!LO:TX:t=P:problem:kreska pseudotaktowa	!	!LO:TX:t=P:problem:kreska pseudotaktowa	!	!LO:TX:t=P:problem:kreska pseudotaktowa	!	!LO:TX:t=P:problem:kreska pseudotaktowa	!	!LO:TX:t=P:problem:kreska pseudotaktowa	!
2C#X/	do-	2C#X/	do-	2c#X\	do-	[<2e\	do-	2a\)	.
=67-	=67-	=67-	=67-	=67-	=67-	=67-	=67-	=67-	=67-
2D,<\	-na	2D,<\	-na	1A	.	2e\]	.	1.f	-cem
4D\	no-	(4D\	no-	.	.	2d\	.	.	.
4E\	.	4E\)	.	.	.	.	.	.	.
!	!	!	!	!	!	!LO:TX:t=P:problem:kreska pseudotaktowa	!	!	!
4F\	-bis	(4F\	-bis	2A\	-na	[<2d\	-na	.	.
!	!	!LO:TX:t=P:problem:kreska pseudotaktowa	!	!	!	!	!	!	!
4Gny\	.	4Gny\)	.	.	.	.	.	.	.
=68-	=68-	=68-	=68-	=68-	=68-	=68-	=68-	=68-	=68-
!LO:LB:g=original	!	!	!	!	!	!	!	!LO:TX:t=P:problem:kreska pseudotaktowa	!
1A	pa-	1A	pa-	1.A	no-	2d\]	.	1.e,<	.
.	.	.	.	.	.	2c#X/	no-	.	.
!LO:TX:t=P:problem:kreska pseudotaktowa	!	!LO:TX:t=P:problem:kreska pseudotaktowa	!	!	!	!LO:TX:t=P:problem:kreska pseudotaktowa	!	!	!
2AA/	-cem	2AA,</	-cem	.	.	2c#/	-bis	.	.
=69-	=69-	=69-	=69-	=69-	=69-	=69-	=69-	=69-	=69-
!	!	!	!	!LO:TX:t=P:problem:kreska pseudotaktowa	!	!LO:TX:t=P:problem:kreska pseudotaktowa	!	!	!
4D\	Do-	4D\	Do-	1.A	-bis	[<1.d	pa-	1.f	Do-
4C#X\	.	4C#X\	.	.	.	.	.	.	.
4D\	-na	4D\	.	.	.	.	.	.	.
4E\	.	4E\	.	.	.	.	.	.	.
4F\	.	4F\	-na	.	.	.	.	.	.
!LO:TX:t=P:problem:kreska pseudotaktowa	!	!LO:TX:t=P:problem:kreska pseudotaktowa	!	!	!	!	!	!	!
4D\	.	4D\	.	.	.	.	.	.	.
=70-	=70-	=70-	=70-	=70-	=70-	=70-	=70-	=70-	=70-
!	!	!	!	!	!	!	!	!LO:TX:t=P:problem:kreska pseudotaktowa	!
4G\	no-	4G\	.	1.Bn	pa-	1.d]	.	[<1.g	-na
4F\	.	4F\	.	.	.	.	.	.	.
4G\	.	4G\	no-	.	.	.	.	.	.
4A\	.	4A\	.	.	.	.	.	.	.
4G\	.	4G\	.	.	.	.	.	.	.
!LO:TX:t=P:problem:kreska pseudotaktowa	!	!LO:TX:t=P:problem:kreska pseudotaktowa	!	!	!	!	!	!	!
4F\	.	4F\	.	.	.	.	.	.	.
=71-	=71-	=71-	=71-	=71-	=71-	=71-	=71-	=71-	=71-
!	!	!	!	!LO:TX:t=P:problem:kreska pseudotaktowa	!	!LO:TX:t=P:problem:kreska pseudotaktowa	!	!	!
4E\	.	4E\	.	[<1.cny	.	1.e	.	1.g]	.
4G\	.	4G\	.	.	.	.	.	.	.
4cny\	.	4c\	.	.	.	.	.	.	.
4G\	.	4G\	.	.	.	.	.	.	.
4E\	.	4E\	.	.	.	.	.	.	.
!LO:TX:t=P:problem:kreska pseudotaktowa	!	!LO:TX:t=P:problem:kreska pseudotaktowa	!	!	!	!	!	!	!
4Cny/	.	4Cny\	.	.	.	.	.	.	.
=72-	=72-	=72-	=72-	=72-	=72-	=72-	=72-	=72-	=72-
!	!	!	!	!	!	!LO:TX:t=P:problem:kreska pseudotaktowa	!	!	!
4F\	.	4F\	.	1.c]	.	[<1.f	.	1.a	no-
4E\	.	4E\	.	.	.	.	.	.	.
4F\	.	4F\	.	.	.	.	.	.	.
4G\	.	4G\	.	.	.	.	.	.	.
4A\	-bis	4A\	-bis	.	.	.	.	.	.
!LO:TX:t=P:problem:kreska pseudotaktowa	!	!LO:TX:t=P:problem:kreska pseudotaktowa	!	!	!	!	!	!	!
4F\	.	4F\	.	.	.	.	.	.	.
=73-	=73-	=73-	=73-	=73-	=73-	=73-	=73-	=73-	=73-
!	!	!	!	!LO:TX:t=P:problem:kreska pseudotaktowa	!	!	!	!LO:TX:t=P:problem:kreska pseudotaktowa	!
4B-X\	pa-	4B-X\	pa-	[<1.d	.	1.f]	.	[<1.b-X	-bis
4A\	.	4A\	.	.	.	.	.	.	.
4B-\	.	4B-\	.	.	.	.	.	.	.
4c\	.	4c\	.	.	.	.	.	.	.
4B-\	.	4B-\	.	.	.	.	.	.	.
!LO:TX:t=P:problem:kreska pseudotaktowa	!	!LO:TX:t=P:problem:kreska pseudotaktowa	!	!	!	!	!	!	!
4A\	.	4A\	.	.	.	.	.	.	.
=74-	=74-	=74-	=74-	=74-	=74-	=74-	=74-	=74-	=74-
4G\	.	4G\	.	1.d]	.	1.g,<	-cem	1.b-]	.
(4F#X\	.	4F#X\	.	.	.	.	.	.	.
4G\	.	4G\	.	.	.	.	.	.	.
4A\)	.	4A\	.	.	.	.	.	.	.
4B-X\	.	4B-X\	.	.	.	.	.	.	.
!LO:TX:t=P:problem:kreska pseudotaktowa	!	!LO:TX:t=P:problem:kreska pseudotaktowa	!	!	!	!	!	!	!
4G\	.	4G\	.	.	.	.	.	.	.
=75-	=75-	=75-	=75-	=75-	=75-	=75-	=75-	=75-	=75-
2A\	.	2A\	.	1c#X	-cem	1e	do-	1a	do-
2AA/	-cem	2AA/	-cem	.	.	.	.	.	.
!LO:TX:t=P:problem:kreska pseudotaktowa	!	!LO:TX:t=P:problem:kreska pseudotaktowa	!	!	!	!LO:TX:t=P:problem:kreska pseudotaktowa	!	!LO:TX:t=P:problem:kreska pseudotaktowa	!
2r	.	2r	.	2d\	No-	2d\	-na	2f/	-na
=76-	=76-	=76-	=76-	=76-	=76-	=76-	=76-	=76-	=76-
(1.A	Pa-	1.A	pa-	4e\	.	4c#X\	no-	4e/	pa-
.	.	.	.	4d\	.	4d\	.	4f/	.
.	.	.	.	2c#X\	.	2e\	.	2g/	.
!	!	!	!	!LO:TX:t=P:problem:kreska pseudotaktowa	!	!LO:TX:t=P:problem:kreska pseudotaktowa	!	!LO:TX:t=P:problem:kreska pseudotaktowa	!
.	.	.	.	2d\	.	2d\	.	2f/	.
=77-	=77-	=77-	=77-	=77-	=77-	=77-	=77-	=77-	=77-
!	!	!LO:TX:t=P:problem:kreska pseudotaktowa	!	!	!	!	!	!	!
1.AA)	.	1.AA	.	4e\	.	4c#X\	.	4e/	.
.	.	.	.	4d\	.	4d\	.	4f/	.
.	.	.	.	2c#X\	.	2e\	.	2g/	.
!	!	!	!	!LO:TX:t=P:problem:kreska pseudotaktowa	!	!LO:TX:t=P:problem:kreska pseudotaktowa	!	!LO:TX:t=P:problem:kreska pseudotaktowa	!
.	.	.	.	2d\	-bis	2d\	.	2f/	.
=78-	=78-	=78-	=78-	=78-	=78-	=78-	=78-	=78-	=78-
(1.A	.	1.A	.	1e	pa-	1c#X	-bis	1e	.
!	!	!	!	!LO:TX:t=P:problem:kreska pseudotaktowa	!	!LO:TX:t=P:problem:kreska pseudotaktowa	!	!	!
.	.	.	.	2A/	.	[>2d\	pa-	2f/	.
=79-	=79-	=79-	=79-	=79-	=79-	=79-	=79-	=79-	=79-
!	!	!	!	!LO:TX:t=P:problem:kreska pseudotaktowa	!	!	!	!	!
1.AA)	.	1.AA	-cem	1.A	-cem	1d]	.	1.e	-cem.
!	!	!	!	!	!	!LO:TX:b:t=P:problem:# below	!	!	!
.	.	.	.	.	.	2c#X/	-cem	.	.
=80-	=80-	=80-	=80-	=80-	=80-	=80-	=80-	=80-	=80-
!LO:TX:b:B:t=O. ad M. D. Gm.	!	!	!	!	!	!	!	!LO:TX:a:t=P:problem:# above	!
0.D;>	-cem	0.D;>	.	0.A;>	.	0.d;>	.	0.f#X;>	.
=-	=-	=-	=-	=-	=-	=-	=-	=-	=-
*-	*-	*-	*-	*-	*-	*-	*-	*-	*-
!!!system-decoration: [(s1,s2,s3,s4)]s5
!!!RDF**kern: < = below
!!!RDF**kern: > = above
!!!ENC: Marta Chmielewska
!!!END: 2021-08-07
!!!ENC:Anastazja Marusiak
!!!END:2021-07-25
